public/assets/socials/share-small.svg

<svg fill="none" height="34" viewBox="0 0 34 34" width="34" xmlns="http://www.w3.org/2000/svg" xmlns:xlink="http://www.w3.org/1999/xlink"><clipPath id="a"><path d="m0 0h34v34h-34z"/></clipPath><g clip-path="url(#a)"><path d="m8.76625 12.3517c.62191-.6219 1.31185-1.1348 2.04565-1.5399 4.0899-2.25394 9.3344-1.05544 11.9638 2.9311l-3.1819 3.1804c-.9123-2.0811-3.1776-3.2654-5.4315-2.7611-.8486.1898-1.6546.6134-2.3134 1.2722l-6.09732 6.1001c-1.85158 1.8516-1.85158 4.8634 0 6.715s4.86342 1.8516 6.71502 0l1.8799-1.8799c1.7099.6786 3.5431.9492 5.3536.8146l-4.1494 4.1494c-3.5573 3.5573-9.32454 3.5573-12.88179 0-3.557246-3.5572-3.557246-9.3245 0-12.8817zm9.68435-9.68434-4.1494 4.14942c1.809-.136 3.6436.136 5.3535.81317l1.8785-1.8785c1.8516-1.85159 4.8635-1.85159 6.715 0 1.8516 1.85158 1.8516 4.86345 0 6.71495l-6.0987 6.0988c-1.8573 1.8572-4.8733 1.8417-6.715 0-.4293-.4293-.799-.9633-1.0299-1.4889l-3.1819 3.1804c.3344.5072.6815.9449 1.1277 1.3912 1.1503 1.1503 2.6152 2.0074 4.301 2.414 2.1845.5256 4.5248.2351 6.5351-.8741.7338-.4052 1.4237-.918 2.0457-1.5399l6.0973-6.0988c3.5587-3.5572 3.5587-9.32449.0014-12.88174-3.5572-3.55583-9.3231-3.55583-12.8803 0z" fill="#767676"/></g></svg>

<svg width="34" height="34" viewBox="0 0 34 34" fill="none" xmlns="http://www.w3.org/2000/svg">
<g clip-path="url(#clip0)">
<path d="M8.76625 12.3517C9.38816 11.7298 10.0781 11.2169 10.8119 10.8118C14.9018 8.55786 20.1463 9.75636 22.7757 13.7429L19.5938 16.9233C18.6815 14.8422 16.4162 13.6579 14.1623 14.1622C13.3137 14.352 12.5077 14.7756 11.8489 15.4344L5.75158 21.5345C3.9 23.3861 3.9 26.3979 5.75158 28.2495C7.60316 30.1011 10.615 30.1011 12.4666 28.2495L14.3465 26.3696C16.0564 27.0482 17.8896 27.3188 19.7001 27.1842L15.5507 31.3336C11.9934 34.8909 6.22616 34.8909 2.66891 31.3336C-0.888336 27.7764 -0.888336 22.0091 2.66891 18.4519L8.76625 12.3517ZM18.4506 2.66736L14.3012 6.81678C16.1102 6.68078 17.9448 6.95278 19.6547 7.62995L21.5332 5.75145C23.3848 3.89986 26.3967 3.89986 28.2482 5.75145C30.0998 7.60303 30.0998 10.6149 28.2482 12.4664L22.1495 18.5652C20.2922 20.4224 17.2762 20.4069 15.4345 18.5652C15.0052 18.1359 14.6355 17.6019 14.4046 17.0763L11.2227 20.2567C11.5571 20.7639 11.9042 21.2016 12.3504 21.6479C13.5007 22.7982 14.9656 23.6553 16.6514 24.0619C18.8359 24.5875 21.1762 24.297 23.1865 23.1878C23.9203 22.7826 24.6102 22.2698 25.2322 21.6479L31.3295 15.5491C34.8882 11.9919 34.8882 6.22461 31.3309 2.66736C27.7737 -0.88847 22.0078 -0.88847 18.4506 2.66736Z" fill="#767676"/>
</g>
<defs>
<clipPath id="clip0">
<rect width="34" height="34" fill="white"/>
</clipPath>
</defs>
</svg>
